X: 061
T: Baltiorum
%R: slip-jig
Z: 2018 John Chambers <jc:trillian.mit.edu>
B: Bland and Weller "Country Dances for the Year 1798" p.6 #1
M: 9/8
L: 1/8
K: A
% - - - - - - - - - - - - - - - - - - - - - - - - -
|:\
cea cea ecA | cea cea f2B |\
ceg agf edc | d2B B/c/dB c2A :|
|:\
cec dfd ecA | cec efg | aed |\
cec dfd ecA | d2B (B/c/dB) c2A :|
% - - - - - - - - - - - - - - - - - - - - - - - - -
%%begintext align
%%   Set & half right & left .| the same back
%% again to your own place .|. lead down the middle
%% up again :|. Allmand :|:
%%endtext
% - - - - - - - - - - - - - - - - - - - - - - - - -
